X:1
T:[ID 4-53r]
T:[ID 4-53r]
T:Bezeichnung standardisiert: Becker Tantz; Becker Tantz
T:Urheber unbekannt Datum in der hier transkribierten schriftlichen Quelle: 1796
C:Urheber unbekannt
C:Datum in der hier transkribierten schriftlichen Quelle: 1796
L:1/8
M:2/4
K:D
V:1 treble 
V:1
 A | Ad de/f/ | gg g2 | fe/d/ cd | e/d/c/B/ AA | Ad d/e/f/d/ | gg g2 | fe/d/ c/d/e/c/ | d3 :: d | %10
 cBcd | e/d/c/B/ Ad | cBcd | e3 d | cBcd | e/d/c/B/ Ad | cBcd | e3 :| %18

